X: 14
T: Miss Edmonstons Reel
%R: reel
B: "Twenty Four Country Dances for the Year 1780", Thomas Skillern, ed. p.7 #2
F: http://www.vwml.org/browse/browse-collections-dance-tune-books/browse-skillerns1780#
Z: 2014 John Chambers <jc:trillian.mit.edu>
M: C|
L: 1/8
K: Bb
F |\
B2bg (fdTc>B) | AFcF dFcF |\
B2bg (fdTc>B) | B,BAc dB B :|
|: d |\
(BGTF>E) DEFD | ECCB cGGA |\
(BGTF>E) DEFD | B,BAc dB B :|
%%begintext align
%%   Cast off two Cu. & up again .|. lead down
%% the middle & up again :|. hands 3 with the
%% 2d Lady the same with the 2d Gent: .|:
%% Right and Left at top :|:
%%endtext
